icons/close.svg

<?xml version="1.0" encoding="UTF-8" standalone="no"?>
<svg
   width="1536"
   height="1536"
   version="1.1"
   id="svg4"
   sodipodi:docname="close.svg"
   inkscape:version="1.2.2 (b0a8486541, 2022-12-01)"
   xmlns:inkscape="http://www.inkscape.org/namespaces/inkscape"
   xmlns:sodipodi="http://sodipodi.sourceforge.net/DTD/sodipodi-0.dtd"
   xmlns="http://www.w3.org/2000/svg"
   xmlns:svg="http://www.w3.org/2000/svg">
  <defs
     id="defs8" />
  <sodipodi:namedview
     id="namedview6"
     pagecolor="#ffffff"
     bordercolor="#000000"
     borderopacity="0.25"
     inkscape:showpageshadow="2"
     inkscape:pageopacity="0.0"
     inkscape:pagecheckerboard="0"
     inkscape:deskcolor="#d1d1d1"
     showgrid="false"
     inkscape:zoom="0.3274602"
     inkscape:cx="545.10442"
     inkscape:cy="845.90433"
     inkscape:window-width="1920"
     inkscape:window-height="1011"
     inkscape:window-x="0"
     inkscape:window-y="0"
     inkscape:window-maximized="1"
     inkscape:current-layer="svg4" />
  <path
     d="m 1536,1236.0404 c 0,32.3233 -12.9291,64.6466 -36.202,87.9192 l -175.8384,175.8384 c -23.2726,23.2727 -55.596,36.202 -87.9192,36.202 -32.3232,0 -64.6464,-12.9293 -87.9192,-36.202 L 768,1119.6768 387.8788,1499.798 c -23.27274,23.2727 -55.59596,36.202 -87.9192,36.202 -32.32325,0 -64.64647,-12.9293 -87.91919,-36.202 L 36.202018,1323.9596 C 12.929294,1300.687 0,1268.3637 0,1236.0404 0,1203.7172 12.929294,1171.394 36.202018,1148.1212 L 416.32324,768 36.202018,387.87879 C 12.929294,364.60604 0,332.28283 0,299.95959 0,267.63635 12.929294,235.31313 36.202018,212.04041 L 212.04042,36.20202 C 235.31314,12.929287 267.63636,0 299.9596,0 c 32.32324,0 64.64644,12.929287 87.9192,36.20202 L 768,416.32322 1148.1212,36.20202 C 1171.394,12.929287 1203.7172,0 1236.0404,0 c 32.3232,0 64.6466,12.929287 87.9192,36.20202 l 175.8384,175.83839 c 23.2729,23.27272 36.202,55.59594 36.202,87.91918 0,32.32324 -12.9291,64.64645 -36.202,87.9192 L 1119.6768,768 1499.798,1148.1212 c 23.2729,23.2728 36.202,55.596 36.202,87.9192 z"
     id="path2"
     style="fill:#ffffff;stroke-width:1.29293" />
</svg>

<?xml version="1.0" encoding="UTF-8"?>
<svg id="svg4" width="1536" height="1536" version="1.1" xmlns="http://www.w3.org/2000/svg">
 <path id="path2" d="m1536 1236c0 32.323-12.929 64.647-36.202 87.919l-175.84 175.84c-23.273 23.273-55.596 36.202-87.919 36.202s-64.646-12.929-87.919-36.202l-380.12-380.12-380.12 380.12c-23.273 23.273-55.596 36.202-87.919 36.202-32.323 0-64.646-12.929-87.919-36.202l-175.84-175.84c-23.273-23.273-36.202-55.596-36.202-87.919 0-32.323 12.929-64.646 36.202-87.919l380.12-380.12-380.12-380.12c-23.273-23.273-36.202-55.596-36.202-87.919s12.929-64.646 36.202-87.919l175.84-175.84c23.273-23.273 55.596-36.202 87.919-36.202s64.646 12.929 87.919 36.202l380.12 380.12 380.12-380.12c23.273-23.273 55.596-36.202 87.919-36.202s64.647 12.929 87.919 36.202l175.84 175.84c23.273 23.273 36.202 55.596 36.202 87.919s-12.929 64.646-36.202 87.919l-380.12 380.12 380.12 380.12c23.273 23.273 36.202 55.596 36.202 87.919z" fill="#fff" stroke-width="1.2929"/>
</svg>
